public/assets/icons/phone.svg

<svg width="25" height="20" viewBox="0 0 25 20" fill="none" xmlns="http://www.w3.org/2000/svg">
<g opacity="0.5">
<path d="M20.9191 14.0999V16.5999C20.9201 16.832 20.8725 17.0617 20.7796 17.2744C20.6866 17.487 20.5502 17.6779 20.3792 17.8348C20.2082 17.9917 20.0063 18.1112 19.7864 18.1855C19.5666 18.2599 19.3336 18.2875 19.1025 18.2666C16.5382 17.988 14.075 17.1117 11.9108 15.7083C9.89732 14.4288 8.19025 12.7217 6.9108 10.7083C5.50245 8.53425 4.626 6.05908 4.35247 3.48325C4.33164 3.25281 4.35903 3.02055 4.43288 2.80127C4.50674 2.58199 4.62544 2.38049 4.78144 2.2096C4.93743 2.03871 5.1273 1.90218 5.33896 1.80869C5.55061 1.7152 5.77942 1.6668 6.0108 1.66658H8.5108C8.91522 1.6626 9.30729 1.80582 9.61393 2.06953C9.92058 2.33324 10.1209 2.69946 10.1775 3.09992C10.283 3.89997 10.4787 4.68552 10.7608 5.44158C10.8729 5.73985 10.8972 6.06401 10.8307 6.37565C10.7643 6.68729 10.6099 6.97334 10.3858 7.19992L9.32747 8.25825C10.5138 10.3445 12.2412 12.072 14.3275 13.2583L15.3858 12.1999C15.6124 11.9759 15.8984 11.8215 16.2101 11.755C16.5217 11.6885 16.8459 11.7128 17.1441 11.8249C17.9002 12.107 18.6857 12.3027 19.4858 12.4083C19.8906 12.4654 20.2603 12.6693 20.5246 12.9812C20.7889 13.2931 20.9293 13.6912 20.9191 14.0999Z" stroke="#020F59" stroke-linecap="round" stroke-linejoin="round"/>
<path d="M20.9191 14.0999V16.5999C20.9201 16.832 20.8725 17.0617 20.7796 17.2744C20.6866 17.487 20.5502 17.6779 20.3792 17.8348C20.2082 17.9917 20.0063 18.1112 19.7864 18.1855C19.5666 18.2599 19.3336 18.2875 19.1025 18.2666C16.5382 17.988 14.075 17.1117 11.9108 15.7083C9.89732 14.4288 8.19025 12.7217 6.9108 10.7083C5.50245 8.53425 4.626 6.05908 4.35247 3.48325C4.33164 3.25281 4.35903 3.02055 4.43288 2.80127C4.50674 2.58199 4.62544 2.38049 4.78144 2.2096C4.93743 2.03871 5.1273 1.90218 5.33896 1.80869C5.55061 1.7152 5.77942 1.6668 6.0108 1.66658H8.5108C8.91522 1.6626 9.30729 1.80582 9.61393 2.06953C9.92058 2.33324 10.1209 2.69946 10.1775 3.09992C10.283 3.89997 10.4787 4.68552 10.7608 5.44158C10.8729 5.73985 10.8972 6.06401 10.8307 6.37565C10.7643 6.68729 10.6099 6.97334 10.3858 7.19992L9.32747 8.25825C10.5138 10.3445 12.2412 12.072 14.3275 13.2583L15.3858 12.1999C15.6124 11.9759 15.8984 11.8215 16.2101 11.755C16.5217 11.6885 16.8459 11.7128 17.1441 11.8249C17.9002 12.107 18.6857 12.3027 19.4858 12.4083C19.8906 12.4654 20.2603 12.6693 20.5246 12.9812C20.7889 13.2931 20.9293 13.6912 20.9191 14.0999Z" fill="#020F59" stroke="#020F59" stroke-linecap="round" stroke-linejoin="round"/>
</g>
</svg>

<svg xmlns="http://www.w3.org/2000/svg" width="25" height="20" fill="none"><g stroke="#020F59" stroke-linecap="round" stroke-linejoin="round" opacity=".5"><path d="M20.92 14.1v2.5a1.667 1.667 0 0 1-1.818 1.667 16.492 16.492 0 0 1-7.191-2.559 16.251 16.251 0 0 1-5-5 16.492 16.492 0 0 1-2.559-7.225 1.667 1.667 0 0 1 1.659-1.816h2.5A1.667 1.667 0 0 1 10.178 3.1c.105.8.3 1.586.583 2.342a1.667 1.667 0 0 1-.375 1.758L9.327 8.258a13.334 13.334 0 0 0 5 5l1.059-1.058a1.667 1.667 0 0 1 1.758-.375c.756.282 1.542.478 2.342.583a1.667 1.667 0 0 1 1.433 1.692Z"/><path fill="#020F59" d="M20.92 14.1v2.5a1.667 1.667 0 0 1-1.818 1.667 16.492 16.492 0 0 1-7.191-2.559 16.251 16.251 0 0 1-5-5 16.492 16.492 0 0 1-2.559-7.225 1.667 1.667 0 0 1 1.659-1.816h2.5A1.667 1.667 0 0 1 10.178 3.1c.105.8.3 1.586.583 2.342a1.667 1.667 0 0 1-.375 1.758L9.327 8.258a13.334 13.334 0 0 0 5 5l1.059-1.058a1.667 1.667 0 0 1 1.758-.375c.756.282 1.542.478 2.342.583a1.667 1.667 0 0 1 1.433 1.692Z"/></g></svg>
